X: 21
T: Opening Prayer of the Sun Dance
C: Teton Sioux band 1911-1914
N: Derived from sioux021.krn
O: South Dakota, U.S.A.
N: Teton Sioux Music by Frances Densmore, 1918
Z: transcribed to **kern format by Craig Sapp
L: 1/4
M: 3/4
Q: 1/4=58
K: Db clef=bass
%%linebreak <none>
FFF [I:setbarnb 2]| 
F3- | 
F3 | 
FC(E// D3//) | 
C3 | 
C3 ]|:  
DDD | 
D3- | 
D3 | 
(E/< D/)C(E// D3//) | 
C3 | 
C3 | 
B,B,B, | 
B,3- | 
B,3 | 
A,A,C | 
C3 | 
C3 | 
C3 | 
(D/< C/)B,(D// C3//) | 
B,3 | 
B,3 | 
F,F,F, | 
F,3- | 
F,3 | 
D,D,G, | 
G,3- | 
G,3 | 
F,2F, | 
F,3 | 
F,3 | 
D,2D, | 
D,3 | 
D,3- | 
D,3 | 
D,3- | 
D,3 :|]  



